X:99
T:Maureen From Gibberland
B:Terry "Cuz" Teahan "Sliabh Luachra on Parade" 1980
Z:Patrick Cavanagh
M:2/4
L:1/8
R:Polka
K:D
f/e/ | dB AF | A2 AB/c/ | d2 ed/e/ | fe ef/e/ | 
dB AF | A2 AB/c/ | dd ed/e/ | fd d :| 
g | fe fg | a2 gf | eb ba | be ef/e/ | 
dB AF | A2 AB/c/ | dd ed/e/ | fd d :|| 

